; G-Code generated by Simplify3D(R) Version 4.1.2
; Mar 18, 2020 at 10:36:53 PM
; Settings Summary
;   processName,Process1
;   applyToModels,TestTeile - Part 1
;   profileName,E3D Toolchanger (modified)
;   profileVersion,2020-02-24 21:47:32
;   baseProfile,Default
;   printMaterial,PETG
;   printQuality,Medium
;   printExtruders,Extruder 1 Only
;   extruderName,Extruder 1,Extruder 2,Extruder 3,Extruder 4
;   extruderToolheadNumber,0,1,2,3
;   extruderDiameter,0.28,0.4,0.4,0.3
;   extruderAutoWidth,1,1,1,1
;   extruderWidth,0.34,0.48,0.48,0.36
;   extrusionMultiplier,1,1,1,1
;   extruderUseRetract,1,1,1,1
;   extruderRetractionDistance,1,1,1,1
;   extruderExtraRestartDistance,0,0,0,0
;   extruderRetractionZLift,0,0,0,0
;   extruderRetractionSpeed,39960,39960,39960,39960
;   extruderUseCoasting,0,0,0,0
;   extruderCoastingDistance,0.2,0.2,0.2,0.2
;   extruderUseWipe,0,0,0,0
;   extruderWipeDistance,5,5,5,5
;   primaryExtruder,0
;   layerHeight,0.2
;   topSolidLayers,6
;   bottomSolidLayers,3
;   perimeterOutlines,3
;   printPerimetersInsideOut,1
;   startPointOption,1
;   startPointOriginX,0
;   startPointOriginY,0
;   sequentialIslands,0
;   spiralVaseMode,0
;   firstLayerHeightPercentage,100
;   firstLayerWidthPercentage,100
;   firstLayerUnderspeed,0.66
;   useRaft,0
;   raftExtruder,0
;   raftTopLayers,3
;   raftBaseLayers,2
;   raftOffset,3
;   raftSeparationDistance,0.14
;   raftTopInfill,100
;   aboveRaftSpeedMultiplier,0.3
;   useSkirt,0
;   skirtExtruder,0
;   skirtLayers,1
;   skirtOutlines,1
;   skirtOffset,2
;   usePrimePillar,0
;   primePillarExtruder,999
;   primePillarWidth,12
;   primePillarLocation,7
;   primePillarSpeedMultiplier,1
;   useOozeShield,0
;   oozeShieldExtruder,0
;   oozeShieldOffset,2
;   oozeShieldOutlines,3
;   oozeShieldSidewallShape,0
;   oozeShieldSidewallAngle,30
;   oozeShieldSpeedMultiplier,1
;   infillExtruder,0
;   internalInfillPattern,Rectilinear
;   externalInfillPattern,Rectilinear
;   infillPercentage,100
;   outlineOverlapPercentage,20
;   infillExtrusionWidthPercentage,120
;   minInfillLength,3
;   infillLayerInterval,1
;   internalInfillAngles,45,-45
;   overlapInternalInfillAngles,0
;   externalInfillAngles,45,-45
;   generateSupport,0
;   supportExtruder,0
;   supportInfillPercentage,30
;   supportExtraInflation,0
;   supportBaseLayers,0
;   denseSupportExtruder,0
;   denseSupportLayers,0
;   denseSupportInfillPercentage,70
;   supportLayerInterval,1
;   supportHorizontalPartOffset,0.3
;   supportUpperSeparationLayers,1
;   supportLowerSeparationLayers,1
;   supportType,0
;   supportGridSpacing,4
;   maxOverhangAngle,45
;   supportAngles,0
;   temperatureName,Bed
;   temperatureNumber,0
;   temperatureSetpointCount,1
;   temperatureSetpointLayers,1
;   temperatureSetpointTemperatures,100
;   temperatureStabilizeAtStartup,0
;   temperatureHeatedBed,1
;   fanLayers,1,2
;   fanSpeeds,0,100
;   blipFanToFullPower,0
;   adjustSpeedForCooling,1
;   minSpeedLayerTime,15
;   minCoolingSpeedSlowdown,20
;   increaseFanForCooling,0
;   minFanLayerTime,45
;   maxCoolingFanSpeed,100
;   increaseFanForBridging,0
;   bridgingFanSpeed,100
;   use5D,1
;   relativeEdistances,0
;   allowEaxisZeroing,1
;   independentExtruderAxes,0
;   includeM10123,0
;   stickySupport,1
;   applyToolheadOffsets,0
;   gcodeXoffset,0
;   gcodeYoffset,0
;   gcodeZoffset,0
;   overrideMachineDefinition,1
;   machineTypeOverride,0
;   strokeXoverride,293
;   strokeYoverride,178
;   strokeZoverride,280
;   originOffsetXoverride,0
;   originOffsetYoverride,0
;   originOffsetZoverride,0
;   homeXdirOverride,-1
;   homeYdirOverride,-1
;   homeZdirOverride,-1
;   flipXoverride,1
;   flipYoverride,-1
;   flipZoverride,1
;   toolheadOffsets,0,0|0,0|0,0|0,0|0,0|0,0
;   overrideFirmwareConfiguration,1
;   firmwareTypeOverride,RepRap (Marlin/Repetier/Sprinter)
;   GPXconfigOverride,r2
;   baudRateOverride,115200
;   overridePrinterModels,0
;   printerModelsOverride
;   startingGcode,T-1,M106 S[fan_speed_pwm],M140 S[bed0_temperature],M190 S[bed0_temperature]
;   layerChangeGcode,
;   retractionGcode,
;   toolChangeGcode,
;   endingGcode,M0
;   exportFileFormat,gcode
;   celebration,0
;   celebrationSong,Funky Town
;   postProcessing,{REPLACE "G1 E-1.0000 F39960" "G10"},{REPLACE "G1 E0.0000 F39960" "G11"}
;   defaultSpeed,3000
;   outlineUnderspeed,0.6
;   solidInfillUnderspeed,0.8
;   supportUnderspeed,0.8
;   rapidXYspeed,12000
;   rapidZspeed,1200
;   minBridgingArea,50
;   bridgingExtraInflation,0
;   bridgingExtrusionMultiplier,0.87
;   bridgingSpeedMultiplier,1
;   useFixedBridgingAngle,0
;   fixedBridgingAngle,0
;   applyBridgingToPerimeters,0
;   filamentDiameters,2.85|2.85|1.75|2.85|2.85|2.85
;   filamentPricesPerKg,30|30|30|46|46|46
;   filamentDensities,1.25|1.25|1.25|1.25|1.25|1.25
;   useMinPrintHeight,0
;   minPrintHeight,0
;   useMaxPrintHeight,0
;   maxPrintHeight,0
;   useDiaphragm,0
;   diaphragmLayerInterval,20
;   robustSlicing,1
;   mergeAllIntoSolid,0
;   onlyRetractWhenCrossingOutline,0
;   retractBetweenLayers,1
;   useRetractionMinTravel,1
;   retractionMinTravel,3
;   retractWhileWiping,0
;   onlyWipeOutlines,0
;   avoidCrossingOutline,1
;   maxMovementDetourFactor,3
;   toolChangeRetractionDistance,1
;   toolChangeExtraRestartDistance,0
;   toolChangeRetractionSpeed,39960
;   externalThinWallType,1
;   internalThinWallType,1
;   thinWallAllowedOverlapPercentage,10
;   singleExtrusionMinLength,1
;   singleExtrusionMinPrintingWidthPercentage,40
;   singleExtrusionMaxPrintingWidthPercentage,160
;   singleExtrusionEndpointExtension,0.2
;   horizontalSizeCompensation,0
G90
M82
T-1
M106 S0
M140 S100
M190 S100
; process Process1
; layer 1, Z = 0.200
T0
G92 E0.0000
G10
; feature inner perimeter
; tool H0.200 W0.336
G1 Z0.200 F1200
G1 X120.270 Y86.887 F12000
G11
G92 E0.0000
G1 X121.723 Y89.631 E0.0327 F1584
G1 X122.900 Y92.073 E0.0613
G1 X123.855 Y94.266 E0.0865
G1 X124.630 Y96.250 E0.1089
G1 X125.255 Y98.057 E0.1290
G1 X125.757 Y99.712 E0.1473
G1 X126.156 Y101.238 E0.1639
G1 X126.466 Y102.651 E0.1791
G1 X126.700 Y103.967 E0.1932
G1 X126.870 Y105.200 E0.2063
G1 X126.983 Y106.358 E0.2186
G1 X127.045 Y107.452 E0.2301
G1 X127.063 Y108.490 E0.2410
G1 X127.040 Y109.479 E0.2515
G1 X126.979 Y110.425 E0.2614
G1 X126.884 Y111.333 E0.2711
G1 X126.756 Y112.208 E0.2804
G1 X126.597 Y113.056 E0.2895
G1 X126.407 Y113.878 E0.2984
G1 X126.186 Y114.680 E0.3071
G1 X125.935 Y115.465 E0.3158
G1 X125.653 Y116.237 E0.3244
G1 X125.391 Y116.876 E0.3317
G1 X125.047 Y117.630 E0.3405
G1 X124.669 Y118.376 E0.3493
G1 X124.252 Y119.118 E0.3582
G1 X123.792 Y119.861 E0.3674
G1 X123.287 Y120.605 E0.3769
G1 X122.731 Y121.354 E0.3867
G1 X122.125 Y122.101 E0.3969
G1 X121.470 Y122.842 E0.4073
G1 X120.772 Y123.569 E0.4179
G1 X120.032 Y124.277 E0.4287
G1 X119.256 Y124.960 E0.4396
G1 X118.448 Y125.615 E0.4505
G1 X117.753 Y126.135 E0.4597
G1 X116.900 Y126.724 E0.4706
G1 X116.033 Y127.273 E0.4814
G1 X115.152 Y127.781 E0.4921
G1 X114.264 Y128.246 E0.5027
G1 X113.372 Y128.667 E0.5131
G1 X112.478 Y129.046 E0.5233
G1 X111.587 Y129.381 E0.5333
G1 X110.699 Y129.675 E0.5432
G1 X109.817 Y129.928 E0.5528
G1 X108.942 Y130.140 E0.5623
G1 X108.074 Y130.314 E0.5717
G1 X107.213 Y130.450 E0.5808
G1 X106.364 Y130.550 E0.5898
G1 X105.310 Y130.624 E0.6010
G1 X104.477 Y130.645 E0.6098
G1 X103.648 Y130.631 E0.6185
G1 X102.827 Y130.585 E0.6271
G1 X102.011 Y130.504 E0.6358
G1 X101.198 Y130.391 E0.6444
G1 X100.389 Y130.243 E0.6531
G1 X99.581 Y130.061 E0.6618
G1 X98.775 Y129.844 E0.6706
G1 X97.968 Y129.591 E0.6795
G1 X97.159 Y129.299 E0.6886
G1 X96.347 Y128.968 E0.6978
G1 X95.530 Y128.594 E0.7073
G1 X94.706 Y128.175 E0.7170
G1 X93.874 Y127.707 E0.7271
G1 X93.033 Y127.185 E0.7375
G1 X92.180 Y126.605 E0.7484
G1 X91.314 Y125.961 E0.7597
G1 X90.432 Y125.245 E0.7717
G1 X89.533 Y124.450 E0.7843
G1 X88.614 Y123.564 E0.7978
G1 X87.675 Y122.578 E0.8121
G1 X86.099 Y120.776 E0.8374
G1 X84.523 Y122.578 E0.8626
G1 X83.582 Y123.565 E0.8769
G1 X83.286 Y123.852 E0.8813
G1 X79.438 Y120.640 E0.9341
G1 X77.172 Y118.660 E0.9658
G1 X75.728 Y117.311 E0.9866
G1 X74.585 Y116.163 E1.0037
G1 X73.683 Y115.187 E1.0177
G1 X72.951 Y114.329 E1.0295
G1 X72.342 Y113.558 E1.0399
G1 X71.829 Y112.853 E1.0491
G1 X71.390 Y112.198 E1.0574
G1 X71.012 Y111.583 E1.0650
G1 X70.685 Y111.001 E1.0720
G1 X70.401 Y110.446 E1.0786
G1 X70.144 Y109.889 E1.0850
G1 X69.908 Y109.316 E1.0916
G1 X69.708 Y108.763 E1.0978
G1 X69.539 Y108.226 E1.1037
G1 X69.398 Y107.700 E1.1094
G1 X69.283 Y107.182 E1.1150
G1 X69.191 Y106.667 E1.1205
G1 X69.122 Y106.156 E1.1260
G1 X69.074 Y105.641 E1.1314
G1 X69.047 Y105.124 E1.1369
G1 X69.042 Y104.598 E1.1424
G1 X69.058 Y104.046 E1.1482
G1 X69.099 Y103.460 E1.1544
G1 X69.168 Y102.833 E1.1611
G1 X69.268 Y102.162 E1.1682
G1 X69.405 Y101.438 E1.1760
G1 X69.585 Y100.655 E1.1844
G1 X69.817 Y99.802 E1.1937
G1 X70.109 Y98.868 E1.2040
G1 X70.475 Y97.840 E1.2155
G1 X70.929 Y96.700 E1.2285
G1 X71.494 Y95.427 E1.2431
G1 X72.158 Y94.070 E1.2591
G1 X73.064 Y92.374 E1.2793
G1 X73.889 Y90.962 E1.2965
G1 X74.814 Y92.020 E1.3113
G1 X76.292 Y93.576 E1.3340
G1 X77.686 Y94.933 E1.3544
G1 X79.002 Y96.118 E1.3731
G1 X80.248 Y97.155 E1.3902
G1 X81.429 Y98.062 E1.4059
G1 X82.551 Y98.856 E1.4203
G1 X83.622 Y99.552 E1.4338
G1 X84.755 Y100.224 E1.4477
G1 X85.835 Y100.801 E1.4606
G1 X86.862 Y101.295 E1.4726
G1 X87.844 Y101.716 E1.4838
G1 X88.785 Y102.071 E1.4944
G1 X89.689 Y102.369 E1.5044
G1 X90.561 Y102.616 E1.5140
G1 X91.404 Y102.816 E1.5231
G1 X92.222 Y102.973 E1.5319
G1 X93.018 Y103.091 E1.5404
G1 X93.794 Y103.173 E1.5486
G1 X94.553 Y103.221 E1.5566
G1 X95.297 Y103.237 E1.5644
G1 X96.029 Y103.221 E1.5722
G1 X96.751 Y103.176 E1.5798
G1 X97.465 Y103.101 E1.5873
G1 X98.178 Y102.996 E1.5949
G1 X98.895 Y102.861 E1.6026
G1 X99.619 Y102.693 E1.6104
G1 X100.356 Y102.491 E1.6185
G1 X101.108 Y102.251 E1.6268
G1 X101.881 Y101.970 E1.6355
G1 X102.679 Y101.644 E1.6446
G1 X103.508 Y101.265 E1.6542
G1 X104.377 Y100.827 E1.6644
G1 X105.291 Y100.319 E1.6754
G1 X106.263 Y99.729 E1.6874
G1 X107.305 Y99.040 E1.7006
G1 X108.433 Y98.231 E1.7152
G1 X109.668 Y97.272 E1.7316
G1 X111.041 Y96.122 E1.7505
G1 X112.592 Y94.722 E1.7725
G1 X114.382 Y92.984 E1.7988
G1 X116.939 Y90.305 E1.8378
G1 X120.143 Y86.662 E1.8889
G1 X120.270 Y86.887 E1.8916
G1 X120.564 Y86.726 F12000
G92 E0.0000
G1 X122.023 Y89.480 E0.0328 F1584
G1 X123.206 Y91.933 E0.0615
G1 X124.166 Y94.138 E0.0868
G1 X124.945 Y96.134 E0.1094
G1 X125.575 Y97.953 E0.1297
G1 X126.081 Y99.621 E0.1481
G1 X126.482 Y101.159 E0.1648
G1 X126.795 Y102.585 E0.1802
G1 X127.032 Y103.915 E0.1944
G1 X127.204 Y105.160 E0.2077
G1 X127.318 Y106.332 E0.2201
G1 X127.381 Y107.440 E0.2317
G1 X127.399 Y108.491 E0.2428
G1 X127.375 Y109.494 E0.2534
G1 X127.314 Y110.453 E0.2635
G1 X127.218 Y111.374 E0.2733
G1 X127.088 Y112.264 E0.2827
G1 X126.926 Y113.125 E0.2920
G1 X126.733 Y113.961 E0.3010
G1 X126.509 Y114.776 E0.3099
G1 X126.253 Y115.574 E0.3187
G1 X125.966 Y116.358 E0.3275
G1 X125.699 Y117.009 E0.3349
G1 X125.350 Y117.775 E0.3438
G1 X124.965 Y118.534 E0.3528
G1 X124.541 Y119.289 E0.3619
G1 X124.074 Y120.044 E0.3712
G1 X123.561 Y120.799 E0.3809
G1 X122.996 Y121.560 E0.3908
G1 X122.381 Y122.319 E0.4011
G1 X121.717 Y123.070 E0.4117
G1 X121.009 Y123.807 E0.4225
G1 X120.260 Y124.525 E0.4334
G1 X119.473 Y125.217 E0.4444
G1 X118.655 Y125.880 E0.4555
G1 X117.950 Y126.408 E0.4648
G1 X117.086 Y127.005 E0.4759
G1 X116.206 Y127.561 E0.4868
G1 X115.314 Y128.075 E0.4977
G1 X114.414 Y128.546 E0.5084
G1 X113.509 Y128.974 E0.5189
G1 X112.603 Y129.358 E0.5293
G1 X111.699 Y129.698 E0.5395
G1 X110.798 Y129.996 E0.5495
G1 X109.903 Y130.252 E0.5593
G1 X109.014 Y130.468 E0.5689
G1 X108.133 Y130.645 E0.5784
G1 X107.259 Y130.783 E0.5877
G1 X106.395 Y130.884 E0.5968
G1 X105.326 Y130.960 E0.6081
G1 X104.478 Y130.981 E0.6171
G1 X103.636 Y130.967 E0.6259
G1 X102.801 Y130.920 E0.6348
G1 X101.971 Y130.838 E0.6435
G1 X101.145 Y130.722 E0.6523
G1 X100.322 Y130.572 E0.6611
G1 X99.501 Y130.388 E0.6700
G1 X98.681 Y130.167 E0.6789
G1 X97.861 Y129.909 E0.6880
G1 X97.039 Y129.613 E0.6972
G1 X96.214 Y129.277 E0.7066
G1 X95.383 Y128.897 E0.7162
G1 X94.547 Y128.471 E0.7261
G1 X93.703 Y127.996 E0.7363
G1 X92.850 Y127.467 E0.7469
G1 X91.985 Y126.879 E0.7579
G1 X91.107 Y126.226 E0.7694
G1 X90.215 Y125.502 E0.7815
G1 X89.305 Y124.697 E0.7943
G1 X88.376 Y123.801 E0.8079
G1 X87.426 Y122.804 E0.8224
G1 X86.099 Y121.287 E0.8437
G1 X84.771 Y122.804 E0.8649
G1 X83.821 Y123.802 E0.8794
G1 X83.302 Y124.304 E0.8870
G1 X79.220 Y120.896 E0.9430
G1 X76.946 Y118.909 E0.9748
G1 X75.495 Y117.553 E0.9958
G1 X74.343 Y116.396 E1.0130
G1 X73.432 Y115.410 E1.0271
G1 X72.691 Y114.542 E1.0391
G1 X72.074 Y113.761 E1.0496
G1 X71.553 Y113.045 E1.0589
G1 X71.107 Y112.379 E1.0674
G1 X70.723 Y111.754 E1.0751
G1 X70.389 Y111.160 E1.0823
G1 X70.099 Y110.593 E1.0890
G1 X69.836 Y110.024 E1.0956
G1 X69.594 Y109.437 E1.1023
G1 X69.389 Y108.871 E1.1086
G1 X69.216 Y108.320 E1.1147
G1 X69.072 Y107.780 E1.1206
G1 X68.953 Y107.248 E1.1263
G1 X68.859 Y106.720 E1.1320
G1 X68.788 Y106.194 E1.1376
G1 X68.739 Y105.666 E1.1432
G1 X68.711 Y105.134 E1.1488
G1 X68.706 Y104.595 E1.1545
G1 X68.723 Y104.029 E1.1604
G1 X68.764 Y103.430 E1.1667
G1 X68.834 Y102.790 E1.1735
G1 X68.936 Y102.106 E1.1808
G1 X69.076 Y101.369 E1.1887
G1 X69.259 Y100.573 E1.1973
G1 X69.494 Y99.707 E1.2068
G1 X69.790 Y98.762 E1.2172
G1 X70.160 Y97.721 E1.2288
G1 X70.620 Y96.570 E1.2419
G1 X71.189 Y95.286 E1.2567
G1 X71.859 Y93.916 E1.2727
G1 X72.770 Y92.210 E1.2931
G1 X73.834 Y90.389 E1.3153
G1 X75.063 Y91.794 E1.3350
G1 X76.531 Y93.340 E1.3575
G1 X77.915 Y94.688 E1.3778
G1 X79.222 Y95.864 E1.3963
G1 X80.457 Y96.892 E1.4133
G1 X81.628 Y97.791 E1.4288
G1 X82.740 Y98.578 E1.4432
G1 X83.799 Y99.266 E1.4565
G1 X84.920 Y99.931 E1.4702
G1 X85.987 Y100.502 E1.4829
G1 X87.001 Y100.989 E1.4948
G1 X87.970 Y101.404 E1.5059
G1 X88.897 Y101.754 E1.5163
G1 X89.787 Y102.048 E1.5262
G1 X90.646 Y102.290 E1.5356
G1 X91.475 Y102.487 E1.5446
G1 X92.279 Y102.642 E1.5532
G1 X93.060 Y102.758 E1.5615
G1 X93.822 Y102.838 E1.5696
G1 X94.567 Y102.885 E1.5775
G1 X95.297 Y102.901 E1.5851
G1 X96.015 Y102.885 E1.5927
G1 X96.723 Y102.841 E1.6002
G1 X97.423 Y102.767 E1.6076
G1 X98.122 Y102.665 E1.6150
G1 X98.826 Y102.532 E1.6226
G1 X99.537 Y102.367 E1.6303
G1 X100.260 Y102.169 E1.6382
G1 X101.000 Y101.933 E1.6463
G1 X101.760 Y101.657 E1.6549
G1 X102.546 Y101.335 E1.6638
G1 X103.363 Y100.962 E1.6733
G1 X104.219 Y100.530 E1.6834
G1 X105.123 Y100.028 E1.6943
G1 X106.083 Y99.445 E1.7061
G1 X107.114 Y98.764 E1.7191
G1 X108.232 Y97.962 E1.7336
G1 X109.457 Y97.010 E1.7500
G1 X110.820 Y95.868 E1.7687
G1 X112.362 Y94.477 E1.7906
G1 X114.144 Y92.748 E1.8167
G1 X116.691 Y90.078 E1.8556
G1 X120.203 Y86.085 E1.9116
G1 X120.564 Y86.726 E1.9194
; feature outer perimeter
G1 X120.859 Y86.564 F12000
G92 E0.0000
G1 X122.323 Y89.328 E0.0329 F1188
G1 X123.511 Y91.793 E0.0618
G1 X124.476 Y94.010 E0.0872
G1 X125.260 Y96.018 E0.1099
G1 X125.895 Y97.849 E0.1304
G1 X126.404 Y99.530 E0.1489
G1 X126.809 Y101.081 E0.1657
G1 X127.125 Y102.520 E0.1813
G1 X127.364 Y103.862 E0.1956
G1 X127.538 Y105.121 E0.2090
G1 X127.653 Y106.306 E0.2216
G1 X127.717 Y107.427 E0.2334
G1 X127.735 Y108.492 E0.2446
G1 X127.711 Y109.508 E0.2553
G1 X127.649 Y110.481 E0.2656
G1 X127.551 Y111.416 E0.2755
G1 X127.419 Y112.319 E0.2851
G1 X127.255 Y113.193 E0.2945
G1 X127.058 Y114.043 E0.3037
G1 X126.831 Y114.872 E0.3127
G1 X126.571 Y115.683 E0.3217
G1 X126.280 Y116.480 E0.3306
G1 X126.008 Y117.143 E0.3382
G1 X125.653 Y117.921 E0.3472
G1 X125.261 Y118.692 E0.3563
G1 X124.830 Y119.460 E0.3656
G1 X124.356 Y120.226 E0.3751
G1 X123.835 Y120.994 E0.3848
G1 X123.262 Y121.766 E0.3950
G1 X122.637 Y122.536 E0.4054
G1 X121.965 Y123.298 E0.4161
G1 X121.246 Y124.045 E0.4270
G1 X120.487 Y124.772 E0.4381
G1 X119.690 Y125.474 E0.4493
G1 X118.861 Y126.145 E0.4605
G1 X118.146 Y126.680 E0.4699
G1 X117.271 Y127.285 E0.4811
G1 X116.380 Y127.848 E0.4922
G1 X115.476 Y128.370 E0.5032
G1 X114.563 Y128.847 E0.5141
G1 X113.646 Y129.280 E0.5248
G1 X112.728 Y129.670 E0.5353
G1 X111.811 Y130.015 E0.5456
